X:53
T:Favorite March in Volentine,A. TJD.53
M:C
L:1/8
Q:1/4=120
S:T.J.Dixon MS2, Lincolnshire, early 19thC
R:march
N:Repeat mark added at end
A:Lincolnshire, Holton le Moor
Z:vmp.R.Greig2010
K:G
G2d>d (3ded (3cBA|B2(g>g)g2f2|e2d2c2B2|A2(A>A) A>cB>A|!
G2(d>d) (3ded (3cBA|B2(g>g)g2f2|(fe)(ge) (ed)(dc)|d2(d>d)d2:|!
|:D2|d2(c>c)c2D2|c2(B>B)B2cd|E2(FG) A>B c/B/A/G/|F2(D>D) DDEF|!
GGBG EEcA|FFdB GGec|B/g/f/g/ f/e/d/c/B2A2|G2(G>G)G2:|]

